img/edit.svg

<svg fill="none" height="17" viewBox="0 0 16 17" width="16" xmlns="http://www.w3.org/2000/svg"><path d="m12.8667 6.44967-2.8334-2.8.9334-.93333c.2555-.25555.5695-.38333.942-.38333.3724 0 .6862.12778.9413.38333l.9333.93333c.2556.25556.3889.564.4.92534.0111.36133-.1111.66955-.3666.92466zm-.9667.98334-7.06667 7.06669h-2.83333v-2.8334l7.06667-7.06663z" fill="#008699"/></svg>

<svg width="16" height="17" viewBox="0 0 16 17" fill="none" xmlns="http://www.w3.org/2000/svg">
<path d="M12.8667 6.44967L10.0333 3.64967L10.9667 2.71634C11.2222 2.46079 11.5362 2.33301 11.9087 2.33301C12.2811 2.33301 12.5949 2.46079 12.85 2.71634L13.7833 3.64967C14.0389 3.90523 14.1722 4.21367 14.1833 4.57501C14.1944 4.93634 14.0722 5.24456 13.8167 5.49967L12.8667 6.44967ZM11.9 7.43301L4.83333 14.4997H2V11.6663L9.06667 4.59967L11.9 7.43301Z" fill="#008699"/>
</svg>
